src/icon/brand/card-mastercard/icon_card-mastercard_l_black.svg

<?xml version="1.0" encoding="UTF-8"?>
<svg width="30px" height="30px" viewBox="0 0 30 30" version="1.1" xmlns="http://www.w3.org/2000/svg" xmlns:xlink="http://www.w3.org/1999/xlink">
    <!-- Generator: Sketch 49 (51002) - http://www.bohemiancoding.com/sketch -->
    <title>icon_mastercard_l_black</title>
    <desc>Created with Sketch.</desc>
    <defs></defs>
    <g id="Page-1" stroke="none" stroke-width="1" fill="none" fill-rule="evenodd">
        <g id="card_mastercard_l_black">
            <polygon id="Shape" points="0 0 30 0 30 30 0 30"></polygon>
            <path d="M15.000103,7.58255559 C14.9045126,7.65747553 14.8109823,7.73465334 14.7195121,7.81388375 C13.1566907,9.16880586 12.167206,11.1631133 12.167206,13.3891594 C12.167206,15.6152054 13.1566907,17.6097181 14.7195121,18.964435 C14.8109823,19.0438706 14.9045126,19.1210484 15.000103,19.1959684 C15.0956935,19.1210484 15.1892238,19.0438706 15.2806939,18.964435 C16.8435153,17.6097181 17.832794,15.6152054 17.832794,13.3891594 C17.832794,11.1631133 16.8435153,9.16880586 15.2806939,7.81388375 C15.1892238,7.73465334 15.0956935,7.65747553 15.000103,7.58255559 Z M19.5835,6 C18.0651776,6 16.6535705,6.45485644 15.4778492,7.23484493 C15.5380053,7.2839021 15.5989854,7.33234349 15.6570813,7.38283748 C17.4044911,8.89724671 18.4065427,11.0865512 18.4065427,13.3891594 C18.4065427,15.6919727 17.4044911,17.881072 15.6572873,19.3956865 C15.5993974,19.4459752 15.5380053,19.4944166 15.4778492,19.5434738 C16.6535705,20.3236675 18.0651776,20.778524 19.5835,20.778524 C23.6796742,20.778524 27,17.4703465 27,13.3893646 C27,9.30817749 23.6796742,6 19.5835,6 Z M14.3429187,19.3956865 C14.4008086,19.4459752 14.4619947,19.4944166 14.5221508,19.5434738 C13.3466355,20.3236675 11.9348224,20.778524 10.4165,20.778524 C6.32032585,20.778524 3,17.4703465 3,13.3891594 C3,9.30838275 6.32032585,6 10.4165,6 C11.9348224,6 13.3464295,6.45485644 14.5221508,7.23484493 C14.4619947,7.2839021 14.4012206,7.33234349 14.3429187,7.38263222 C12.5955089,8.89724671 11.5936634,11.0865512 11.5936634,13.3891594 C11.5936634,15.6919727 12.5955089,17.8812773 14.3429187,19.3956865 Z M26.7678223,17.9683076 L26.7678223,17.6813539 L26.6926273,17.6813539 L26.6061014,17.8786089 L26.5197816,17.6813539 L26.4445866,17.6813539 L26.4445866,17.9683076 L26.4977381,17.9683076 L26.4977381,17.7517581 L26.5787016,17.9383396 L26.6337073,17.9383396 L26.7146708,17.7513476 L26.7146708,17.9683076 L26.7678223,17.9683076 Z M26.2919303,17.9683076 L26.2919303,17.7302058 L26.3879327,17.7302058 L26.3879327,17.6817644 L26.1427762,17.6817644 L26.1427762,17.7302058 L26.2391907,17.7302058 L26.2391907,17.9683076 L26.2919303,17.9683076 Z M26.5236959,24.3477923 L26.5236959,24.3960285 L26.5681949,24.3960285 C26.5782896,24.3960285 26.5865301,24.3939759 26.5927105,24.3900759 C26.5986849,24.3859707 26.6015691,24.3798129 26.6015691,24.3716025 C26.6015691,24.3635974 26.5986849,24.3576448 26.5927105,24.3535396 C26.5865301,24.3498449 26.5782896,24.3477923 26.5681949,24.3477923 L26.5236959,24.3477923 Z M26.5686069,24.3137192 C26.5920925,24.3137192 26.6098097,24.3188507 26.6225826,24.3293189 C26.6353554,24.3397872 26.6415358,24.3537449 26.6415358,24.3716025 C26.6415358,24.3865865 26.6363855,24.3989021 26.6264968,24.4087546 C26.6164021,24.4181966 26.6019812,24.4243544 26.5836459,24.4266122 L26.6429779,24.4949638 L26.5964188,24.4949638 L26.5412071,24.4268175 L26.5236959,24.4268175 L26.5236959,24.4949638 L26.4847593,24.4949638 L26.4847593,24.3137192 L26.5686069,24.3137192 Z M26.5572762,24.5569524 C26.5782896,24.5569524 26.5978609,24.5530525 26.6161961,24.5452526 C26.6345314,24.5372474 26.6503944,24.5263686 26.6639913,24.512411 C26.6780003,24.4988638 26.688507,24.4828535 26.6963355,24.4643801 C26.7043701,24.4457014 26.7082843,24.4262017 26.7082843,24.4050599 C26.7082843,24.3841234 26.7043701,24.3644184 26.6963355,24.3457397 C26.688507,24.3272663 26.6780003,24.311256 26.6639913,24.2975036 C26.6503944,24.2837512 26.6345314,24.2728724 26.6161961,24.2650725 C26.5978609,24.2572726 26.5782896,24.2535779 26.5572762,24.2535779 C26.5356447,24.2535779 26.5154553,24.2572726 26.4969141,24.2650725 C26.4781668,24.2728724 26.4620977,24.2837512 26.4480888,24.2975036 C26.4344919,24.311256 26.4235731,24.3272663 26.4157446,24.3457397 C26.4079161,24.3644184 26.4040018,24.3841234 26.4040018,24.4050599 C26.4040018,24.4262017 26.4079161,24.4457014 26.4157446,24.4643801 C26.4235731,24.4828535 26.4344919,24.4988638 26.4480888,24.512411 C26.4620977,24.5263686 26.4781668,24.5372474 26.4969141,24.5452526 C26.5154553,24.5530525 26.5356447,24.5569524 26.5572762,24.5569524 Z M26.5572762,24.2100628 C26.58447,24.2100628 26.6104277,24.214989 26.6347374,24.225252 C26.658841,24.235515 26.6798544,24.2492675 26.6979836,24.2671251 C26.7159068,24.2847775 26.7301218,24.3055087 26.7406285,24.3293189 C26.7509292,24.3529238 26.7560796,24.3781708 26.7560796,24.4050599 C26.7560796,24.4317437 26.7509292,24.4569907 26.7406285,24.4805956 C26.7301218,24.5039953 26.7159068,24.5247266 26.6979836,24.5423789 C26.6798544,24.5602366 26.658841,24.573989 26.6347374,24.5844573 C26.6104277,24.5949255 26.58447,24.600057 26.5572762,24.600057 C26.5290523,24.600057 26.5026825,24.5949255 26.4781668,24.5844573 C26.4538572,24.573989 26.4324317,24.5602366 26.4147145,24.5423789 C26.3965853,24.5247266 26.3825764,24.5039953 26.3720697,24.4805956 C26.361769,24.4569907 26.3566186,24.4317437 26.3566186,24.4050599 C26.3566186,24.3781708 26.361769,24.3529238 26.3720697,24.3293189 C26.3825764,24.3055087 26.3965853,24.2847775 26.4147145,24.2671251 C26.4324317,24.2492675 26.4538572,24.235515 26.4781668,24.225252 C26.5026825,24.214989 26.5290523,24.2100628 26.5572762,24.2100628 Z M8.18578161,23.5132047 C8.18578161,23.1685729 8.41239689,22.8853139 8.78301587,22.8853139 C9.13735976,22.8853139 9.37633587,23.1562573 9.37633587,23.5132047 C9.37633587,23.8705625 9.13735976,24.1413006 8.78301587,24.1413006 C8.41239689,24.1413006 8.18578161,23.8580417 8.18578161,23.5132047 Z M9.78012309,23.5132047 L9.78012309,22.5322665 L9.3516142,22.5322665 L9.3516142,22.7703682 C9.21585105,22.5940498 9.00983716,22.4832093 8.72965827,22.4832093 C8.17754105,22.4832093 7.74491189,22.9140503 7.74491189,23.5132047 C7.74491189,24.1125642 8.17754105,24.5436105 8.72965827,24.5436105 C9.00983716,24.5436105 9.21585105,24.43277 9.3516142,24.2562463 L9.3516142,24.4945533 L9.78012309,24.4945533 L9.78012309,23.5132047 Z M24.2486845,23.5132047 C24.2486845,23.1685729 24.4750938,22.8853139 24.8459188,22.8853139 C25.2002627,22.8853139 25.4392388,23.1562573 25.4392388,23.5132047 C25.4392388,23.8705625 25.2002627,24.1413006 24.8459188,24.1413006 C24.4750938,24.1413006 24.2486845,23.8580417 24.2486845,23.5132047 Z M25.843026,23.5132047 L25.843026,21.7442729 L25.4145171,21.7442729 L25.4145171,22.7703682 C25.2785479,22.5940498 25.0725341,22.4832093 24.7923552,22.4832093 C24.240444,22.4832093 23.8078148,22.9140503 23.8078148,23.5132047 C23.8078148,24.1125642 24.240444,24.5436105 24.7923552,24.5436105 C25.0725341,24.5436105 25.2785479,24.43277 25.4145171,24.2562463 L25.4145171,24.4945533 L25.843026,24.4945533 L25.843026,23.5132047 Z M15.0944574,22.8647879 C15.370722,22.8647879 15.5476879,23.0372064 15.593011,23.3407861 L14.5713881,23.3407861 C14.6167112,23.0577324 14.7897628,22.8647879 15.0944574,22.8647879 Z M15.1029039,22.4832093 C14.526065,22.4832093 14.1222778,22.9017347 14.1222778,23.5132047 C14.1222778,24.1371954 14.5425462,24.5436105 15.1317459,24.5436105 C15.4281999,24.5436105 15.7001382,24.4697168 15.9391143,24.2685619 L15.7289801,23.9524613 C15.564169,24.0840331 15.3542409,24.1577215 15.1564675,24.1577215 C14.8804089,24.1577215 14.629072,24.0304602 14.5670618,23.6774128 L16.0297604,23.6774128 C16.0338807,23.6240451 16.038001,23.5708827 16.038001,23.5132047 C16.0338807,22.9017347 15.6548151,22.4832093 15.1029039,22.4832093 Z M20.2730285,23.5132047 C20.2730285,23.1685729 20.4996438,22.8853139 20.8704688,22.8853139 C21.2248127,22.8853139 21.4635828,23.1562573 21.4635828,23.5132047 C21.4635828,23.8705625 21.2248127,24.1413006 20.8704688,24.1413006 C20.4996438,24.1413006 20.2730285,23.8580417 20.2730285,23.5132047 Z M21.86737,23.5132047 L21.86737,22.5322665 L21.4388611,22.5322665 L21.4388611,22.7703682 C21.3030979,22.5940498 21.097084,22.4832093 20.8166991,22.4832093 C20.2647879,22.4832093 19.8321588,22.9140503 19.8321588,23.5132047 C19.8321588,24.1125642 20.2647879,24.5436105 20.8166991,24.5436105 C21.097084,24.5436105 21.3030979,24.43277 21.4388611,24.2562463 L21.4388611,24.4945533 L21.86737,24.4945533 L21.86737,23.5132047 Z M17.8546314,23.5132047 C17.8546314,24.1086643 18.2709855,24.5436105 18.9053023,24.5436105 C19.2019623,24.5436105 19.3995296,24.4781325 19.6139901,24.3096139 L19.4079762,23.9649822 C19.2472853,24.0797226 19.0783539,24.1413006 18.8929414,24.1413006 C18.5509584,24.1371954 18.2998275,23.8908833 18.2998275,23.5132047 C18.2998275,23.1357313 18.5509584,22.8894191 18.8929414,22.8853139 C19.0783539,22.8853139 19.2472853,22.946892 19.4079762,23.0618376 L19.6139901,22.7170006 C19.3995296,22.5486873 19.2019623,22.4832093 18.9053023,22.4832093 C18.2709855,22.4832093 17.8546314,22.9181555 17.8546314,23.5132047 Z M23.3751856,22.4832093 C23.127969,22.4832093 22.9672781,22.5979497 22.8562366,22.7703682 L22.8562366,22.5322665 L22.431642,22.5322665 L22.431642,24.4945533 L22.8601509,24.4945533 L22.8601509,23.394359 C22.8601509,23.070048 23.0002403,22.8894191 23.2804192,22.8894191 C23.3669451,22.8894191 23.4575912,22.9017347 23.5482373,22.9386816 L23.6800862,22.536577 C23.5853198,22.4996301 23.4617115,22.4832093 23.3751856,22.4832093 Z M11.8975338,22.6882642 C11.69152,22.5529978 11.4074268,22.4832093 11.0942857,22.4832093 C10.5957321,22.4832093 10.2745564,22.7211058 10.2745564,23.1111001 C10.2745564,23.4313059 10.5135325,23.6283556 10.9541962,23.6899336 L11.1560899,23.7184648 C11.3907397,23.7513064 11.5021932,23.8128844 11.5021932,23.9237249 C11.5021932,24.0758227 11.3456226,24.1618267 11.0530829,24.1618267 C10.7564229,24.1618267 10.5421685,24.0676123 10.3979587,23.9565665 L10.1962711,24.2892932 C10.430921,24.4613012 10.727787,24.5436105 11.0489626,24.5436105 C11.617561,24.5436105 11.9471832,24.2767723 11.9471832,23.9034042 C11.9471832,23.5585671 11.6876057,23.3779382 11.2590968,23.3161549 L11.0572032,23.2876238 C10.8717907,23.2629926 10.7234607,23.2260457 10.7234607,23.0946793 C10.7234607,22.9509972 10.8635501,22.8647879 11.098612,22.8647879 C11.3497429,22.8647879 11.5928393,22.9592076 11.7123274,23.0331012 L11.8975338,22.6882642 Z M17.4222083,22.4832093 C17.1751976,22.4832093 17.0143008,22.5979497 16.9030533,22.7703682 L16.9030533,22.5322665 L16.4788707,22.5322665 L16.4788707,24.4945533 L16.9071736,24.4945533 L16.9071736,23.394359 C16.9071736,23.070048 17.047469,22.8894191 17.3274419,22.8894191 C17.4139677,22.8894191 17.5046139,22.9017347 17.59526,22.9386816 L17.7269028,22.536577 C17.6321364,22.4996301 17.5087341,22.4832093 17.4222083,22.4832093 Z M13.76814,22.5322665 L13.0676927,22.5322665 L13.0676927,21.9372174 L12.6352696,21.9372174 L12.6352696,22.5322665 L12.2353966,22.5322665 L12.2353966,22.9222607 L12.6352696,22.9222607 L12.6352696,23.8171949 C12.6352696,24.2728724 12.8122355,24.5436105 13.3190297,24.5436105 C13.5042362,24.5436105 13.7184906,24.4861377 13.8544598,24.3919233 L13.7310575,24.026355 C13.6033288,24.1004539 13.4630334,24.1371954 13.3519919,24.1371954 C13.1377375,24.1371954 13.0676927,24.0060342 13.0676927,23.8089845 L13.0676927,22.9222607 L13.76814,22.9222607 L13.76814,22.5322665 Z M7.36584633,24.4945533 L7.36584633,23.2629926 C7.36584633,22.7991047 7.06939234,22.4871093 6.59164614,22.4832093 C6.34030919,22.4788989 6.08073169,22.5568977 5.89923346,22.8319463 C5.7634703,22.6143706 5.54921586,22.4832093 5.24843558,22.4832093 C5.03850743,22.4832093 4.83249354,22.5447874 4.67159669,22.7746787 L4.67159669,22.5322665 L4.24329382,22.5322665 L4.24329382,24.4945533 L4.67592299,24.4945533 L4.67592299,23.4066746 C4.67592299,23.0659428 4.86545576,22.8853139 5.15778947,22.8853139 C5.44188262,22.8853139 5.58629836,23.070048 5.58629836,23.4023642 L5.58629836,24.4945533 L6.01872151,24.4945533 L6.01872151,23.4066746 C6.01872151,23.0659428 6.21649485,22.8853139 6.50079401,22.8853139 C6.79333373,22.8853139 6.93342318,23.070048 6.93342318,23.4023642 L6.93342318,24.4945533 L7.36584633,24.4945533 Z" id="Page-1-Copy" fill="#0F2338"></path>
        </g>
    </g>
</svg>

<svg width="30" height="30" viewBox="0 0 30 30" xmlns="http://www.w3.org/2000/svg"><g fill="none" fill-rule="evenodd"><path d="M0 0h30v30H0z"/><path d="M15 7.583a7.36 7.36 0 0 0-2.833 5.807A7.359 7.359 0 0 0 15 19.195a7.359 7.359 0 0 0 2.833-5.807A7.359 7.359 0 0 0 15 7.583zM19.584 6c-1.519 0-2.93.455-4.106 1.235.06.049.121.097.18.148a7.947 7.947 0 0 1 2.749 6.006 7.948 7.948 0 0 1-2.75 6.007c-.058.05-.119.098-.18.147a7.4 7.4 0 0 0 4.107 1.236c4.096 0 7.416-3.309 7.416-7.39C27 9.31 23.68 6 19.584 6zm-5.241 13.396c.058.05.119.098.18.147a7.4 7.4 0 0 1-4.107 1.236C6.32 20.779 3 17.47 3 13.389 3 9.31 6.32 6 10.416 6c1.519 0 2.93.455 4.106 1.235-.06.049-.12.097-.18.148a7.948 7.948 0 0 0-2.748 6.006 7.947 7.947 0 0 0 2.749 6.007zm12.425-1.428v-.287h-.075l-.087.198-.086-.198h-.075v.287h.053v-.216l.08.186h.056l.08-.187v.217h.054zm-.476 0v-.238h.096v-.048h-.245v.048h.096v.238h.053zm.232 6.38v.048h.044c.01 0 .019-.002.025-.006.006-.004.009-.01.009-.018a.02.02 0 0 0-.01-.018.048.048 0 0 0-.024-.006h-.044zm.045-.034c.023 0 .04.005.054.015.012.01.019.025.019.043a.05.05 0 0 1-.016.037.075.075 0 0 1-.042.018l.059.068h-.047l-.055-.068h-.017v.068h-.04v-.181h.085zm-.012.243a.149.149 0 0 0 .14-.093.148.148 0 0 0 .011-.059.148.148 0 0 0-.044-.107.148.148 0 0 0-.107-.044.154.154 0 0 0-.109.044.153.153 0 0 0 .049.247.154.154 0 0 0 .06.012zm0-.347a.197.197 0 0 1 .2.195.187.187 0 0 1-.059.137.205.205 0 0 1-.14.058.2.2 0 0 1-.201-.195.187.187 0 0 1 .058-.138.195.195 0 0 1 .142-.057zm-18.371-.697c0-.344.226-.628.597-.628.354 0 .593.271.593.628 0 .358-.239.628-.593.628-.37 0-.597-.283-.597-.628zm1.594 0v-.98h-.428v.237a.748.748 0 0 0-.622-.287c-.552 0-.985.431-.985 1.03 0 .6.433 1.03.985 1.03.28 0 .486-.11.622-.287v.239h.428v-.982zm14.469 0c0-.344.226-.628.597-.628.354 0 .593.271.593.628 0 .358-.239.628-.593.628-.37 0-.597-.283-.597-.628zm1.594 0v-1.769h-.428v1.026a.749.749 0 0 0-.623-.287c-.552 0-.984.431-.984 1.03 0 .6.432 1.03.984 1.03.28 0 .487-.11.623-.287v.239h.428v-.982zm-10.749-.648c.277 0 .454.172.499.476h-1.022c.046-.283.219-.476.523-.476zm.009-.382c-.577 0-.98.419-.98 1.03 0 .624.42 1.03 1.009 1.03a1.2 1.2 0 0 0 .807-.274l-.21-.317a.939.939 0 0 1-.573.206c-.276 0-.527-.128-.589-.48h1.463c.004-.054.008-.107.008-.165-.004-.611-.383-1.03-.935-1.03zm5.17 1.03c0-.344.227-.628.597-.628.355 0 .594.271.594.628 0 .358-.24.628-.594.628-.37 0-.597-.283-.597-.628zm1.594 0v-.98h-.428v.237c-.136-.176-.342-.287-.622-.287-.552 0-.985.431-.985 1.03 0 .6.433 1.03.985 1.03.28 0 .486-.11.622-.287v.239h.428v-.982zm-4.012 0c0 .596.416 1.03 1.05 1.03.297 0 .495-.065.709-.233l-.206-.345a.869.869 0 0 1-.515.176c-.342-.004-.593-.25-.593-.628 0-.377.251-.624.593-.628.185 0 .354.062.515.177l.206-.345c-.214-.168-.412-.234-.709-.234-.634 0-1.05.435-1.05 1.03zm5.52-1.03a.58.58 0 0 0-.519.287v-.238h-.424v1.963h.428v-1.1c0-.325.14-.506.42-.506a.7.7 0 0 1 .268.05l.132-.402a.919.919 0 0 0-.305-.054zm-11.477.205c-.206-.135-.49-.205-.804-.205-.498 0-.82.238-.82.628 0 .32.24.517.68.579l.202.028c.235.033.346.095.346.206 0 .152-.156.238-.449.238a1.05 1.05 0 0 1-.655-.205l-.202.332c.235.172.532.255.853.255.569 0 .898-.267.898-.64 0-.345-.26-.526-.688-.588l-.202-.028c-.185-.025-.334-.062-.334-.193 0-.144.14-.23.376-.23.25 0 .494.094.613.168l.186-.345zm5.524-.205a.581.581 0 0 0-.519.287v-.238h-.424v1.963h.428v-1.1c0-.325.14-.506.42-.506a.7.7 0 0 1 .268.05l.132-.402a.918.918 0 0 0-.305-.054zm-3.654.05h-.7v-.596h-.433v.595h-.4v.39h.4v.895c0 .456.177.727.684.727.185 0 .4-.058.535-.152l-.123-.366a.791.791 0 0 1-.379.111c-.214 0-.284-.131-.284-.328v-.887h.7v-.39zm-6.402 1.962v-1.232c0-.464-.297-.776-.774-.78-.252-.004-.511.074-.693.349a.723.723 0 0 0-.65-.349.653.653 0 0 0-.577.292v-.243h-.429v1.963h.433v-1.088c0-.341.19-.522.482-.522.284 0 .428.185.428.517v1.093h.433v-1.088c0-.341.197-.522.482-.522.292 0 .432.185.432.517v1.093h.433z" fill="#0F2338"/></g></svg>
